build/images/slider/cloud.svg

<svg width="80" height="35" viewBox="0 0 80 35" fill="none" xmlns="http://www.w3.org/2000/svg">
<path opacity="0.31" d="M0.406865 35C0.145309 34.1235 0 33.196 0 32.2391C0 26.9804 4.24303 22.7149 9.47416 22.7149C10.1426 22.7149 10.7892 22.788 11.414 22.9194C13.1578 16.682 18.8466 12.1098 25.6108 12.1098C26.6061 12.1098 27.5797 12.212 28.5242 12.4019C31.7573 5.09808 39.0373 0 47.5089 0C58.981 0 68.2735 9.34892 68.2735 20.8744C68.2735 21.5975 68.2372 22.3059 68.1646 23.0071C68.9202 22.8099 69.7121 22.7076 70.5258 22.7076C75.757 22.7076 80 26.9731 80 32.2318C80 33.1959 79.8547 34.1162 79.5931 34.9927H0.406865V35Z" fill="#00A79E"/>
</svg>

<svg width="80" height="35" viewBox="0 0 80 35" fill="none" xmlns="http://www.w3.org/2000/svg"><path opacity=".31" d="M.407 35A9.647 9.647 0 010 32.24c0-5.26 4.243-9.525 9.474-9.525.669 0 1.315.073 1.94.204 1.744-6.237 7.433-10.81 14.197-10.81.995 0 1.969.103 2.913.293C31.757 5.098 39.037 0 47.51 0c11.47 0 20.763 9.349 20.763 20.874 0 .724-.036 1.432-.108 2.133a9.342 9.342 0 012.36-.3c5.232 0 9.475 4.266 9.475 9.525 0 .964-.145 1.884-.407 2.76H.407V35z" fill="#00A79E"/></svg>
